svgs/sharp-light/cloud-word.svg

<svg xmlns="http://www.w3.org/2000/svg" viewBox="0 0 640 512"><!--! Font Awesome Pro 6.6.0 by @fontawesome - https://fontawesome.com License - https://fontawesome.com/license (Commercial License) Copyright 2024 Fonticons, Inc. --><path d="M544 259.6l16 9.2c28.8 16.6 48 47.7 48 83.2l0 96-96 0-368 0L32 448l0-112c0-48.7 31.1-90.2 74.7-105.6l21.3-7.5 0-22.6 0-8.2c0-70.7 57.3-128 128-128c45.1 0 84.8 23.3 107.6 58.7l14.2 22 24.3-9.5c11.7-4.6 24.4-7.1 37.9-7.1c57.4 0 104 46.6 104 104l0 9.1 0 18.5zM96 200.2C40.1 220 0 273.3 0 336L0 448l0 32 32 0 112 0 368 0 96 0 32 0 0-32 0-96c0-47.4-25.7-88.7-64-110.9l0-9.1c0-75.1-60.9-136-136-136c-17.5 0-34.2 3.3-49.5 9.3C362 61.2 312.4 32 256 32C167.6 32 96 103.6 96 192l0 8.2zM512 352l-16 0-192 0-16 0 0 32 16 0 192 0 16 0 0-32zm-272 0l-96 0-16 0 0 32 16 0 96 0 16 0 0-32-16 0zM128 288l0 32 16 0 192 0 16 0 0-32-16 0-192 0-16 0zm272 0l-16 0 0 32 16 0 96 0 16 0 0-32-16 0-96 0z"/></svg>

<svg xmlns="http://www.w3.org/2000/svg" viewBox="0 0 640 512"><!--! Font Awesome Pro 6.4.0 by @fontawesome - https://fontawesome.com License - https://fontawesome.com/license (Commercial License) Copyright 2023 Fonticons, Inc. --><path d="M544 259.6l16 9.2c28.8 16.6 48 47.7 48 83.2v96H512 144 32V336c0-48.7 31.1-90.2 74.7-105.6l21.3-7.5V200.2 192c0-70.7 57.3-128 128-128c45.1 0 84.8 23.3 107.6 58.7l14.2 22 24.3-9.5c11.7-4.6 24.4-7.1 37.9-7.1c57.4 0 104 46.6 104 104v9.1 18.5zM96 200.2C40.1 220 0 273.3 0 336V448v32H32 144 512h96 32V448 352c0-47.4-25.7-88.7-64-110.9V232c0-75.1-60.9-136-136-136c-17.5 0-34.2 3.3-49.5 9.3C362 61.2 312.4 32 256 32C167.6 32 96 103.6 96 192v8.2zM512 352H496 304 288v32h16H496h16V352zm-272 0H144 128v32h16 96 16V352H240zM128 288v32h16H336h16V288H336 144 128zm272 0H384v32h16 96 16V288H496 400z"/></svg>
